!!!OTL: Vogelhochzeit
!!!ARE: Europa, Mitteleuropa, Deutschland
!!!SCT: A0251
!!!YEM: Copyright 1995, estate of Helmut Schaffrath.
**kern
*ICvox
*Ivox
*M3/2
*k[f#c#]
*D:
{2g
=1
1dd
2dd
=2
1dd
2g
=3
1.dd
=4
1dd}
{2g
=5
1a
2b
=6
1ccn
2a
=7
2.g
4f#
4g
4a
=8
1g}
{4a
4b
=9
1ccn
2ccn
=10
1ccn
2b
=11
1ccn
2ccn
=12
1ccn}
{2b
=13
1a
2ccn
=14
1b
2a
=15
2.d
4c#
4d
4e
=16
1d}
==
!!!AGN: Romanze, Ballade, Lied
!! Hainhofer Lautenbuch II Bl 131 (Hs. in fol 1604)
!!!ONB: ESAC (Essen Associative Code) Database: ALTDEU
!!!AMT: simple triple
!!!AIN: vox
!!!EED: Helmut Schaffrath
!!!EEV: 1.0
*-
